X:1
T:Knocknaboul Polka #2
I:abc2nwc
M:2/4
L:1/16
K:G
"^polka"G2B2 BcBA|G2B2 B3G|F2A2 ABAG|F2A2 D4|
G2B2 BcBA|G2B2 d2g2|f2d2 c2A2|G4G4:|
|:g4g3f|g2a2 a2g2|f2d2 d2e2|f2g2 agf2|g4g3f|g2b2 a3g|f2d2 c2A2|G4G4:|
|:B4B3c|d2c2 A2G2|FGFE F2D2|F2G2 A2G2|
B3A B2c2|d2c2 A2g2|fed2 c2A2|G4G4:|
